X:1
T:Title
%%score { ( 1 4 ) | ( 2 3 ) }
L:1/8
M:4/4
K:C
V:1 treble nm="Grand Piano"
V:4 treble 
V:2 bass 
V:3 bass 
V:1
 z4 z2[Q:1/4=100] [EG]>[EG] | [Ec]2 [EG]>[EG] B2 F>F | [_EA]4 [=EG]2 [EG]>G | %3
 [B,DG]2 [B,D]>[CE] [DF]2 [FB]>[B,FA] | [CEG]4 [CE]2 [EG]>[EG] | [Ec]2 G>G d2 G>G | %6
 [Ge]4 [Ec]2 [EG]>G | A2 d>c B2 A>B |[M:3/4] [Ec]6 |[M:1/4] B>c |[M:4/4] d2 G>G [DFG]2 [CGc]>[Gd] | %11
 [Ge]4 z4 | [Gc]2 [Ec]>[Ec] [^Fc]2 [FB]>[Fc] | [Gd]6 z2 | [Ec]>[Ec] [Ec]>[Ec] [Gc]2 [FB]>[Ec] | %15
 [Fd]>[Ac] [GB]>[FA] [EG]2 [Gc]>d | e2 d>c d2 c>B |[M:3/4] [Ec]6 |] %18
V:2
 z4 z2 [C,C]>[C,C] | [C,G,]2 [C,C]>[C,C][K:treble] [G,DF]2 [G,B,D]>[K:bass][G,B,D] | %2
 [C,C]4 [C,C]2 z z/ E/ | G,,2 [G,,G,]>[G,,G,] [G,,G,]2 [G,,G,]>G,, | z4 G,2 [C,C]>[C,C] | %5
 [C,G,]2 [E,C]>[E,C][K:treble] [G,B,G]2 [G,B,]>[K:bass][G,B,] | [C,C]4 [C,G,]2 z z/ E/ | %7
 [F,CF]2 [F,A,F]>[F,A,F] [G,F]2 [G,F]>[G,F] |[M:3/4][K:bass] [C,C]6 | %9
[M:1/4] [G,D]>[K:treble][G,CE] |[M:4/4] [G,B,F]2 [G,DF]>[G,DF] G,>[K:bass]F, E,>[D,B,] | %11
 [C,C]2 C,>C, [C,G,]2 [C,C]2 | [E,C]2 [C,C]>[C,C] [D,A,]2 [D,D]>[D,C] | [G,B,]2 G,>G, G,>F, E,>D, | %14
 [C,G,]>[C,G,] [C,G,]>[C,G,] [E,G,]2 [D,G,]>[C,G,] | %15
 [F,A,]>[F,C] [F,C]>[F,C] [C,C]2 [E,C]>[K:treble][G,B,G] | %16
 [CG]2 [G,B,F]>[K:bass][A,CE] [F,A,F]2 [G,E]>[G,D] |[M:3/4] [C,G,]6 |] %18
V:3
 x8 | x4[K:treble] x7/2[K:bass] x/ | z4 z2 [C,C]2 | x8 | C,6 z2 | x4[K:treble] x7/2[K:bass] x/ | %6
 z4 z2 [C,C]2 | x8 |[M:3/4][K:bass] x6 |[M:1/4] x3/2[K:treble] x/ |[M:4/4] x11/2[K:bass] x5/2 | %11
 x8 | x8 | x8 | x8 | x15/2[K:treble] x/ | x7/2[K:bass] x9/2 |[M:3/4] x6 |] %18
V:4
 x8 | x8 | x8 | x8 | x8 | x8 | x8 | x8 |[M:3/4] x6 |[M:1/4] x2 |[M:4/4] x8 | z2 C>C [Ec]2 [EG]2 | %12
 x8 | z2 B,>B, B,2 [G,G]>[G,FG] | x8 | x8 | x8 |[M:3/4] x6 |] %18

